front/assets/images/icone-outil.svg

<svg width="24" height="24" viewBox="0 0 24 24" fill="none" xmlns="http://www.w3.org/2000/svg">
    <path fill-rule="evenodd" clip-rule="evenodd" d="M21.0081 3C21.5561 3 22.0001 3.449 22.0001 4.007V16.993C22.0001 17.549 21.5451 18 21.0081 18H14.0001V20L16.0001 21V22H8.00008L7.99608 21.004L10.0001 20V18H2.99208C2.72687 17.9984 2.4732 17.8913 2.28707 17.7024C2.10095 17.5135 1.99768 17.2582 2.00004 16.993V4.007C2.00004 3.451 2.45508 3 2.99208 3H21.0081ZM20.0001 14H4.00008V16H20.0001V14Z" fill="#0D0C21"/>
</svg>

<svg xmlns="http://www.w3.org/2000/svg" width="24" height="24" fill="none"><path fill="#0D0C21" fill-rule="evenodd" d="M21.008 3c.548 0 .992.449.992 1.007v12.986c0 .556-.455 1.007-.992 1.007H14v2l2 1v1H8l-.004-.996L10 20v-2H2.992A1 1 0 0 1 2 16.993V4.007C2 3.451 2.455 3 2.992 3zM20 14H4v2h16z" clip-rule="evenodd"/></svg>
